X: 1
T: Grassy Road
R: jig
M: 6/8
L: 1/8
K: Dmaj
F3 FEF|DFA dAG|FAF FED|EFE EDE|
F3 FEF|DFA d2e|fdB AGE|FDD D3:|
|:f3 edB|ABA AFA|dAd fdf|aba gfe|
def edB|ABA AFA|fdB AGE|FDD D3:|

